Papirus-Light/22x22/animations/nm-vpn-connecting09.svg

<?xml version="1.0" encoding="UTF-8" standalone="no"?>
<svg xmlns="http://www.w3.org/2000/svg" version="1.1" width="22" height="22">
 <defs>
  <linearGradient y2="5" x2="19" gradientTransform="matrix(-0.43209,0.90183,0.90183,0.43209,5.3637,-5.007)" y1="12" gradientUnits="userSpaceOnUse" x1="7" id="linearGradient3605">
   <stop offset="0" stop-opacity=".5" stop-color="#5c616c"/>
   <stop offset="1" stop-opacity="0" stop-color="#5c616c"/>
  </linearGradient>
  <linearGradient y2="12" x2="17" gradientTransform="matrix(0.43209,-0.90183,-0.90183,-0.43209,16.637,27.007)" y1="12" gradientUnits="userSpaceOnUse" x1="7" id="linearGradient3611">
   <stop offset="0" stop-color="#5c616c"/>
   <stop offset="1" stop-color="#5c616c" stop-opacity=".5"/>
  </linearGradient>
 </defs>
 <path d="M 14.025391 4.6875 L 13.160156 6.4902344 C 14.953821 7.349431 15.972905 9.1399502 15.970703 11.003906 C 15.980749 11.003804 15.98993 11 16 11 C 16.742599 11 17.410651 11.288033 17.931641 11.744141 C 18.238859 8.8787028 16.773504 6.0037949 14.025391 4.6875 z M 8.4179688 15.402344 C 7.4831687 15.379344 6.9506625 16.819547 7.9765625 17.310547 C 9.2788719 17.935307 10.671331 18.094204 12 17.898438 L 12 15.867188 C 10.967395 16.08272 9.8649956 16.00031 8.8398438 15.509766 C 8.6933438 15.439766 8.5514687 15.406344 8.4179688 15.402344 z" style="fill:url(#linearGradient3611)"/>
 <path d="M 11.330078 4.0058594 C 8.6050781 3.8785594 5.9404 5.3598094 4.6875 7.9746094 C 3.0171 11.461009 4.4900625 15.6425 7.9765625 17.3125 L 8.8398438 15.509766 C 6.3495438 14.316766 5.2989875 11.330044 6.4921875 8.8398438 C 7.6852875 6.3495438 10.671109 5.2970344 13.162109 6.4902344 L 14.025391 4.6875 C 13.154391 4.2699 12.238078 4.0482594 11.330078 4.0058594 z" style="fill:url(#linearGradient3605)"/>
 <path d="m16 12c-1.108 0-2 .91085-2 2.0312v.96875h-1v4h6v-4h-1v-.96875c0-1.12-.892-2.031-2-2.031zm0 1c.554 0 1 .4424 1 1v1h-2v-1c0-.5576.446-1 1-1z" fill="#5c616c"/>
</svg>

<?xml version="1.0" encoding="UTF-8" standalone="no"?>
<svg width="22" xmlns="http://www.w3.org/2000/svg" version="1.1" height="22">
 <defs>
  <linearGradient id="linearGradient3605" y2="5" gradientUnits="userSpaceOnUse" y1="12" gradientTransform="matrix(-.43209 .90183 .90183 .43209 5.3637 -5.007)" x2="19" x1="7">
   <stop stop-opacity=".5" stop-color="#5c616c" offset="0"/>
   <stop stop-opacity="0" stop-color="#5c616c" offset="1"/>
  </linearGradient>
  <linearGradient id="linearGradient3611" y2="12" gradientUnits="userSpaceOnUse" y1="12" gradientTransform="matrix(.43209 -.90183 -.90183 -.43209 16.637 27.007)" x2="17" x1="7">
   <stop stop-color="#5c616c" offset="0"/>
   <stop stop-color="#5c616c" stop-opacity=".5" offset="1"/>
  </linearGradient>
 </defs>
 <path style="fill:url(#linearGradient3611)" d="m14.025 4.6875l-0.865 1.8027c1.794 0.8592 2.813 2.6498 2.811 4.5138 0.01 0 0.019-0.004 0.029-0.004 0.743 0 1.411 0.288 1.932 0.744 0.307-2.8653-1.158-5.7402-3.907-7.0565zm-5.607 10.714c-0.9348-0.023-1.4673 1.418-0.4414 1.909 1.3023 0.624 2.6944 0.783 4.0234 0.587v-2.031c-1.033 0.216-2.135 0.133-3.1602-0.357-0.1465-0.07-0.2883-0.104-0.4218-0.108z"/>
 <path style="fill:url(#linearGradient3605)" d="m11.33 4.0059c-2.7249-0.1273-5.3896 1.3539-6.6425 3.9687-1.6704 3.4864-0.1974 7.6674 3.2891 9.3374l0.8632-1.802c-2.4903-1.193-3.5408-4.18-2.3476-6.6702 1.1931-2.4903 4.1788-3.5428 6.6698-2.3496l0.863-1.8027c-0.871-0.4176-1.787-0.6392-2.695-0.6816z"/>
 <path d="m16 12c-1.108 0-2 0.91085-2 2.0312v0.96875h-1v4h6v-4h-1v-0.96875c0-1.12-0.892-2.031-2-2.031zm0 1c0.554 0 1 0.4424 1 1v1h-2v-1c0-0.5576 0.446-1 1-1z" fill="#5c616c"/>
</svg>
